X:1
T:[ID 1-66a]
T:[ID 1-66a]
T:Bezeichnung standardisiert: Vexier-Menuet Fetz Zier Menuet 2.
T:Urheber unbekannt Erstbeleg: vor 1767 (Datum in der schriftlichen Quelle) Datum in der hier transkribierten schriftlichen Quelle: 1775
C:Urheber unbekannt
C:Erstbeleg: vor 1767 (Datum in der schriftlichen Quelle)
C:Datum in der hier transkribierten schriftlichen Quelle: 1775
L:1/8
M:3/4
K:F
V:1 treble 
V:1
 F^cdefe | d2 ^cd F2 | gfedcB | A2 DE C2 | F^cdefe | d2 ^cd F2 | ^cedGFE | F6 :: fe/f/ g2 f2 | %9
 gf/e/ fcAF | fe/f/ g2 f2 | gf/e/ f2 F2 :| %12

